16x16/actions/view-certificate-server-configure.svg

<svg height="16" width="16" xmlns="http://www.w3.org/2000/svg"><path d="m12 10v.586l-.414-.414-1.414 1.414.414.414h-.586v2h.586l-.414.414 1.414 1.414.414-.414v.586h2v-.586l.414.414 1.414-1.414-.414-.414h.586v-2h-.586l.414-.414-1.414-1.414-.414.414v-.586zm1 2a1 1 0 0 1 1 1 1 1 0 0 1 -1 1 1 1 0 0 1 -1-1 1 1 0 0 1 1-1zm-13-11v14h9v-6h7v-8zm9 2h6v1h-6zm-5.5 1s1.5 0 1.5 1.5v1.5h1v3h-5v-3h1v-1.5c0-1.5 1.5-1.5 1.5-1.5zm0 1s-.5 0-.5.5v1.5h1v-1.5c0-.5-.5-.5-.5-.5zm5.5 1h6v1h-6z" fill="#8b9cbe"/></svg>

<svg xmlns="http://www.w3.org/2000/svg" width="16" height="16"><defs><style id="current-color-scheme" type="text/css"></style></defs><path style="fill:currentColor;color:#8b9cbe" d="M12 10v.586l-.414-.414-1.414 1.414.414.414H10v2h.586l-.414.414 1.414 1.414.414-.414V16h2v-.586l.414.414 1.414-1.414-.414-.414H16v-2h-.586l.414-.414-1.414-1.414-.414.414V10zm1 2a1 1 0 0 1 1 1 1 1 0 0 1-1 1 1 1 0 0 1-1-1 1 1 0 0 1 1-1zM0 1v14h9V9h7V1zm9 2h6v1H9zM3.5 4S5 4 5 5.5V7h1v3H1V7h1V5.5C2 4 3.5 4 3.5 4zm0 1S3 5 3 5.5V7h1V5.5C4 5 3.5 5 3.5 5zM9 6h6v1H9z"/></svg>
